X: 37000
T: Sidra De Pera
R: reel
M: 4/4
K: Fdorian
K:Ab
|:e2 dc B2 cd|e2 dc B2 cd|e2 fe e4|
d2 Bc A2 Bc|d2 Bc A2 Bc|dc dc AB BB:|
|:A2 GF E2 AA|A2 Bc A2 Bc|dc BA AB BB|
AF FE EF GA|GG AB AA Bc|dc Bc A4:|

